T: Whistle Ower The Lave O't
M: 4/4
L: 1/8
K: Gmaj
|: A4 A3 B | c2 B2 c e3 | e2 fg a2 e2 | c2 A2 A =G3 |A4 A3 B | c2 B2 ce3 | A3 B c2 A2 | B4 A4 :||: e2 fg a2 g2 | f2 e2 f a3 | e2 fg a2 e2 | c2 A2 A =G3 |e2 fg a2 g2 | f2 e2 f a3 | A3 B c2 A2 | B4 A4 :||: A2 A>B cBc<e | ef/g/ ae cAA<G | |: ef/g/ ag fef<a | ef/g/ ae cAA>G | |: G2 G>A BAB<d | de/f/ gd BGG<F | |: de/f/ gf ede<g | de/f/ gd BGG<F |
